assets/Other/icon-turnover.svg

<?xml version="1.0" encoding="UTF-8"?>
<svg viewBox="0 0 18 18" version="1.1" xmlns="http://www.w3.org/2000/svg" xmlns:xlink="http://www.w3.org/1999/xlink">
    <title>icon-turnover</title>
    <g id="icon-turnover" stroke="none" stroke-width="1" fill-rule="evenodd">
        <path d="M8.96571727,4 C9.86155639,4 10.7019074,4.23895988 11.4275608,4.65687661 C11.6836422,4.80439475 11.9251699,4.97452309 12.1500536,5.16397662 L12.6802113,4.63018578 C12.8299554,4.47940828 13.0852467,4.54362025 13.147005,4.74757409 L13.987407,7.52280397 C14.0350702,7.68020285 13.9416554,7.83003077 13.8045025,7.87466091 C13.7531435,7.89136834 13.6956928,7.89342148 13.6371715,7.8754565 L10.880963,7.02925468 C10.6784071,6.96707019 10.6146352,6.71001702 10.7643793,6.55923952 L11.2718524,6.0482642 C11.0388124,5.86340457 10.7835975,5.70559506 10.5104643,5.58032784 C10.0397709,5.36438879 9.51672447,5.24399777 8.96571727,5.24399777 C6.90554472,5.24399777 5.23547141,6.92562242 5.23547141,8.99998717 C5.23547141,11.0743776 6.90554472,12.7560022 8.96571727,12.7560022 C11.0258898,12.7560022 12.6959631,11.0743776 12.6959631,8.99998717 C12.6959631,8.8264968 12.6840091,8.65580384 12.6614009,8.48854989 L13.384327,8.71049437 C13.4937231,8.74408888 13.6067639,8.76112995 13.720289,8.76112995 L13.8234085,8.75631469 L13.924935,8.74216406 C13.9292425,8.8275747 13.9314345,8.91352429 13.9314345,8.99998717 C13.9314345,11.7614097 11.708213,14 8.96571727,14 C6.22322153,14 4,11.7614097 4,8.99998717 C4,6.23859031 6.22322153,4 8.96571727,4 Z M9.37448927,6.55967068 L9.37448927,6.98438843 C9.9785887,7.14171032 10.4576933,7.60838913 10.5253903,8.11176783 L9.62965316,8.36345718 C9.53073287,8.08030345 9.32241656,7.78665305 8.91620869,7.78665305 C8.56209901,7.78665305 8.40065579,7.94397493 8.40065579,8.09603564 C8.40065579,8.2405311 8.54466938,8.3311481 8.85829541,8.41949172 L8.98390575,8.4526148 C9.96816397,8.68857196 10.6086863,9.04512546 10.6086863,9.77922581 C10.6086863,10.5500517 10.0775345,10.9642728 9.37448927,11.0639014 L9.37448927,11.5410769 L8.53085029,11.5410769 L8.53085029,11.0586659 C7.79655635,10.9380696 7.37994923,10.5238228 7.21330638,9.8946123 L8.20798933,9.59046522 C8.30690963,9.91031883 8.60374698,10.1830015 9.02557921,10.1830015 C9.35886491,10.1830015 9.50468377,10.0728762 9.50468377,9.91031883 C9.50468377,9.68194118 9.34008817,9.59855072 9.08040766,9.52391583 L8.97870613,9.49607209 C7.83822981,9.21817953 7.3226769,8.90353576 7.3226769,8.20616096 C7.3226769,7.59265694 7.71323493,7.09974926 8.53085029,6.97391742 L8.53085029,6.55967068 L9.37448927,6.55967068 Z"></path>
    </g>
</svg>

<svg xmlns="http://www.w3.org/2000/svg" viewBox="0 0 18 18"><title>icon-turnover</title><path fill-rule="evenodd" d="M8.966 4a4.92 4.92 0 0 1 3.184 1.164l.53-.534a.28.28 0 0 1 .467.118l.84 2.775a.283.283 0 0 1-.182.352.28.28 0 0 1-.168 0l-2.756-.846a.283.283 0 0 1-.117-.47l.508-.51a3.695 3.695 0 0 0-2.306-.804c-2.06-.001-3.73 1.68-3.73 3.755 0 2.074 1.67 3.756 3.73 3.756s3.73-1.682 3.73-3.756q0-.26-.035-.511l.723.221q.166.051.336.051l.103-.005.102-.014q.006.129.006.258c0 2.761-2.223 5-4.965 5S4 11.761 4 9s2.223-5 4.966-5m.408 2.56v.424c.605.158 1.084.624 1.151 1.128l-.895.251c-.1-.283-.308-.576-.714-.576-.354 0-.515.157-.515.309 0 .145.144.235.457.323l.126.034c.984.236 1.625.592 1.625 1.326 0 .771-.531 1.185-1.235 1.285v.477h-.843v-.482c-.734-.12-1.151-.535-1.318-1.164l.995-.305a.84.84 0 0 0 .818.593c.333 0 .479-.11.479-.273 0-.228-.165-.311-.425-.386l-.101-.028c-1.14-.278-1.656-.592-1.656-1.29 0-.613.39-1.106 1.208-1.232V6.56z"/></svg>
